apps/www/public/images/logos/publicity/fixed-width/markprompt.svg

<svg width="180" height="60" viewBox="0 0 180 60" fill="none" xmlns="http://www.w3.org/2000/svg">
<path d="M57.2649 12.4058H23.2495C18.634 12.4058 14.8923 16.1475 14.8923 20.763V39.2369C14.8923 43.8524 18.634 47.5941 23.2495 47.5941H57.2649C61.8804 47.5941 65.6221 43.8524 65.6221 39.2369V20.763C65.6221 16.1475 61.8804 12.4058 57.2649 12.4058Z" stroke="#7E7E7E" stroke-width="0.501433"/>
<path d="M50.3704 22.8461C50.3704 22.519 50.5003 22.2053 50.7316 21.974C50.9629 21.7427 51.2766 21.6128 51.6037 21.6128H54.0707C54.3978 21.6128 54.7115 21.7427 54.9428 21.974C55.1741 22.2053 55.304 22.519 55.304 22.8461V29.0135C55.304 29.3406 55.1741 29.6543 54.9428 29.8856C54.7115 30.1169 54.3978 30.2468 54.0707 30.2468H51.6037C51.2766 30.2468 50.9629 30.1169 50.7316 29.8856C50.5003 29.6543 50.3704 29.3406 50.3704 29.0135V22.8461ZM55.7976 35.4274C55.7976 37.0622 54.4721 38.3876 52.8373 38.3876C51.2023 38.3876 49.8771 37.0622 49.8771 35.4274C49.8771 33.7926 51.2023 32.4672 52.8373 32.4672C54.4721 32.4672 55.7976 33.7926 55.7976 35.4274ZM25.9479 38.3876C25.6208 38.3876 25.3071 38.2577 25.0758 38.0264C24.8445 37.7951 24.7146 37.4814 24.7146 37.1543V22.8461C24.7146 22.519 24.8445 22.2053 25.0758 21.974C25.3071 21.7427 25.6208 21.6128 25.9479 21.6128H29.0557C29.4301 21.6128 29.7846 21.7829 30.0186 22.0755L33.619 26.5761C33.7345 26.7206 33.8811 26.8373 34.0479 26.9174C34.2146 26.9976 34.3972 27.0392 34.5823 27.0392C34.7673 27.0392 34.9499 26.9976 35.1167 26.9174C35.2834 26.8373 35.43 26.7206 35.5455 26.5761L39.1456 22.0755C39.2612 21.9311 39.4078 21.8145 39.5745 21.7344C39.7413 21.6543 39.9239 21.6127 40.1089 21.6128H43.2163C43.5434 21.6128 43.8572 21.7427 44.0885 21.974C44.3198 22.2053 44.4499 22.519 44.4499 22.8461V37.1543C44.4499 37.4814 44.3198 37.7951 44.0885 38.0264C43.8572 38.2577 43.5434 38.3876 43.2163 38.3876H40.7496C40.5876 38.3877 40.4272 38.3558 40.2775 38.2938C40.1278 38.2319 39.9919 38.141 39.8773 38.0265C39.7627 37.912 39.6719 37.776 39.6099 37.6263C39.5479 37.4767 39.516 37.3163 39.516 37.1543V32.283C39.516 31.1171 38.0477 30.6019 37.3196 31.5124L35.5455 33.7302C35.43 33.8747 35.2834 33.9913 35.1167 34.0715C34.9499 34.1517 34.7673 34.1933 34.5823 34.1933C34.3972 34.1933 34.2146 34.1517 34.0479 34.0715C33.8811 33.9913 33.7345 33.8747 33.619 33.7302L31.8449 31.5124C31.1168 30.6019 29.6486 31.1171 29.6486 32.283V37.1543C29.6486 37.3163 29.6167 37.4767 29.5547 37.6263C29.4927 37.776 29.4018 37.912 29.2872 38.0265C29.1727 38.141 29.0367 38.2319 28.887 38.2938C28.7373 38.3558 28.5769 38.3877 28.4149 38.3876H25.9479Z" fill="#7E7E7E"/>
<path d="M74.4895 24.2833H76.5631L80.1683 33.0863H80.301L83.9063 24.2833H85.9799V35.6078H84.3542V27.413H84.2491L80.9093 35.5912H79.5601L76.2203 27.4075H76.1152V35.6078H74.4895V24.2833ZM90.803 35.7958C90.2648 35.7958 89.7782 35.6963 89.3432 35.4972C88.9082 35.2944 88.5636 35.0014 88.3092 34.618C88.0585 34.2346 87.9332 33.7646 87.9332 33.208C87.9332 32.7287 88.0254 32.3343 88.2097 32.0246C88.394 31.715 88.6428 31.4699 88.9562 31.2892C89.2695 31.1086 89.6197 30.9722 90.0068 30.88C90.3938 30.7879 90.7883 30.7178 91.1901 30.6699C91.6988 30.6109 92.1117 30.563 92.4287 30.5261C92.7457 30.4856 92.9761 30.4211 93.1199 30.3326C93.2637 30.2441 93.3355 30.1004 93.3355 29.9013V29.8626C93.3355 29.3797 93.1992 29.0055 92.9264 28.7401C92.6573 28.4747 92.2554 28.342 91.7209 28.342C91.1643 28.342 90.7256 28.4655 90.4049 28.7125C90.0879 28.9558 89.8685 29.2267 89.7469 29.5253L88.1931 29.1714C88.3774 28.6553 88.6465 28.2388 89.0004 27.9217C89.358 27.601 89.769 27.3688 90.2335 27.225C90.698 27.0776 91.1864 27.0038 91.6988 27.0038C92.0379 27.0038 92.3974 27.0444 92.7771 27.1255C93.1604 27.2029 93.518 27.3467 93.8498 27.5568C94.1853 27.7669 94.4599 28.0673 94.6737 28.4581C94.8875 28.8452 94.9944 29.3484 94.9944 29.9677V35.6078H93.3798V34.4466H93.3134C93.2065 34.6604 93.0462 34.8705 92.8324 35.077C92.6186 35.2834 92.3439 35.4548 92.0085 35.5912C91.673 35.7276 91.2712 35.7958 90.803 35.7958ZM91.1624 34.4687C91.6195 34.4687 92.0103 34.3784 92.3347 34.1978C92.6628 34.0171 92.9116 33.7812 93.0812 33.49C93.2544 33.1951 93.3411 32.8799 93.3411 32.5444V31.4496C93.2821 31.5086 93.1678 31.5639 92.9982 31.6155C92.8324 31.6634 92.6425 31.7058 92.4287 31.7426C92.2149 31.7758 92.0066 31.8072 91.8039 31.8366C91.6011 31.8624 91.4315 31.8846 91.2951 31.903C90.9744 31.9435 90.6814 32.0117 90.416 32.1076C90.1542 32.2034 89.9441 32.3417 89.7856 32.5223C89.6308 32.6993 89.5533 32.9352 89.5533 33.2301C89.5533 33.6393 89.7045 33.9489 90.0068 34.159C90.309 34.3655 90.6943 34.4687 91.1624 34.4687ZM97.1965 35.6078V27.1144H98.7946V28.4636H98.8831C99.0379 28.0065 99.3107 27.6471 99.7014 27.3854C100.096 27.12 100.542 26.9872 101.04 26.9872C101.143 26.9872 101.264 26.9909 101.405 26.9983C101.548 27.0057 101.661 27.0149 101.742 27.0259V28.6074C101.675 28.589 101.558 28.5687 101.388 28.5466C101.218 28.5208 101.049 28.5079 100.879 28.5079C100.488 28.5079 100.14 28.5908 99.8341 28.7567C99.5319 28.9189 99.2922 29.1456 99.1153 29.4368C98.9384 29.7244 98.8499 30.0524 98.8499 30.4211V35.6078H97.1965ZM104.693 32.7269L104.682 30.7086H104.97L108.354 27.1144H110.333L106.474 31.2063H106.214L104.693 32.7269ZM103.173 35.6078V24.2833H104.826V35.6078H103.173ZM108.536 35.6078L105.495 31.5712L106.634 30.4156L110.566 35.6078H108.536ZM111.84 38.7928V27.1144H113.455V28.4913H113.593C113.689 28.3143 113.827 28.1097 114.008 27.8775C114.188 27.6453 114.439 27.4425 114.76 27.2692C115.08 27.0923 115.504 27.0038 116.032 27.0038C116.717 27.0038 117.329 27.1771 117.867 27.5236C118.406 27.8701 118.828 28.3696 119.134 29.0221C119.443 29.6746 119.598 30.4598 119.598 31.3777C119.598 32.2956 119.445 33.0826 119.139 33.7388C118.833 34.3913 118.413 34.8945 117.878 35.2484C117.344 35.5986 116.734 35.7737 116.048 35.7737C115.532 35.7737 115.11 35.687 114.782 35.5138C114.457 35.3405 114.203 35.1378 114.019 34.9055C113.834 34.6733 113.693 34.4669 113.593 34.2862H113.493V38.7928H111.84ZM113.46 31.3611C113.46 31.9583 113.547 32.4818 113.72 32.9315C113.893 33.3812 114.144 33.7333 114.472 33.9876C114.8 34.2383 115.202 34.3636 115.678 34.3636C116.172 34.3636 116.584 34.2328 116.916 33.971C117.248 33.7056 117.499 33.3462 117.668 32.8928C117.842 32.4394 117.928 31.9288 117.928 31.3611C117.928 30.8008 117.843 30.2976 117.674 29.8515C117.508 29.4055 117.257 29.0534 116.922 28.7954C116.59 28.5374 116.175 28.4083 115.678 28.4083C115.198 28.4083 114.793 28.5318 114.461 28.7788C114.133 29.0258 113.884 29.3705 113.715 29.8128C113.545 30.2552 113.46 30.7713 113.46 31.3611ZM121.45 35.6078V27.1144H123.049V28.4636H123.137C123.292 28.0065 123.565 27.6471 123.955 27.3854C124.35 27.12 124.796 26.9872 125.293 26.9872C125.397 26.9872 125.518 26.9909 125.658 26.9983C125.802 27.0057 125.915 27.0149 125.996 27.0259V28.6074C125.929 28.589 125.811 28.5687 125.642 28.5466C125.472 28.5208 125.303 28.5079 125.133 28.5079C124.742 28.5079 124.394 28.5908 124.088 28.7567C123.786 28.9189 123.546 29.1456 123.369 29.4368C123.192 29.7244 123.104 30.0524 123.104 30.4211V35.6078H121.45ZM130.7 35.7792C129.904 35.7792 129.209 35.5967 128.615 35.2318C128.022 34.8668 127.561 34.3563 127.233 33.7001C126.905 33.0439 126.741 32.2772 126.741 31.3998C126.741 30.5188 126.905 29.7483 127.233 29.0885C127.561 28.4286 128.022 27.9162 128.615 27.5513C129.209 27.1863 129.904 27.0038 130.7 27.0038C131.496 27.0038 132.191 27.1863 132.785 27.5513C133.378 27.9162 133.839 28.4286 134.167 29.0885C134.495 29.7483 134.659 30.5188 134.659 31.3998C134.659 32.2772 134.495 33.0439 134.167 33.7001C133.839 34.3563 133.378 34.8668 132.785 35.2318C132.191 35.5967 131.496 35.7792 130.7 35.7792ZM130.706 34.3913C131.222 34.3913 131.649 34.2549 131.988 33.9821C132.328 33.7093 132.578 33.3462 132.74 32.8928C132.906 32.4394 132.989 31.9399 132.989 31.3943C132.989 30.8524 132.906 30.3547 132.74 29.9013C132.578 29.4442 132.328 29.0774 131.988 28.8009C131.649 28.5245 131.222 28.3862 130.706 28.3862C130.186 28.3862 129.754 28.5245 129.412 28.8009C129.072 29.0774 128.82 29.4442 128.654 29.9013C128.492 30.3547 128.411 30.8524 128.411 31.3943C128.411 31.9399 128.492 32.4394 128.654 32.8928C128.82 33.3462 129.072 33.7093 129.412 33.9821C129.754 34.2549 130.186 34.3913 130.706 34.3913ZM136.505 35.6078V27.1144H138.092V28.4968H138.197C138.374 28.0286 138.663 27.6637 139.065 27.402C139.467 27.1365 139.948 27.0038 140.508 27.0038C141.076 27.0038 141.551 27.1365 141.935 27.402C142.322 27.6674 142.607 28.0323 142.792 28.4968H142.88C143.083 28.0434 143.405 27.6821 143.848 27.413C144.29 27.1402 144.817 27.0038 145.429 27.0038C146.2 27.0038 146.828 27.2453 147.315 27.7282C147.805 28.2111 148.05 28.9392 148.05 29.9124V35.6078H146.397V30.0672C146.397 29.4921 146.24 29.0756 145.927 28.8175C145.614 28.5595 145.239 28.4305 144.804 28.4305C144.266 28.4305 143.848 28.5963 143.549 28.9281C143.251 29.2562 143.101 29.6783 143.101 30.1944V35.6078H141.454V29.9621C141.454 29.5013 141.31 29.1309 141.022 28.8507C140.735 28.5705 140.361 28.4305 139.9 28.4305C139.586 28.4305 139.297 28.5134 139.032 28.6793C138.77 28.8415 138.558 29.0682 138.396 29.3594C138.237 29.6506 138.158 29.9879 138.158 30.3713V35.6078H136.505ZM150.266 38.7928V27.1144H151.881V28.4913H152.019C152.115 28.3143 152.253 28.1097 152.434 27.8775C152.614 27.6453 152.865 27.4425 153.186 27.2692C153.507 27.0923 153.931 27.0038 154.458 27.0038C155.143 27.0038 155.755 27.1771 156.293 27.5236C156.832 27.8701 157.254 28.3696 157.56 29.0221C157.869 29.6746 158.024 30.4598 158.024 31.3777C158.024 32.2956 157.871 33.0826 157.565 33.7388C157.259 34.3913 156.839 34.8945 156.305 35.2484C155.77 35.5986 155.16 35.7737 154.474 35.7737C153.958 35.7737 153.536 35.687 153.208 35.5138C152.884 35.3405 152.629 35.1378 152.445 34.9055C152.261 34.6733 152.119 34.4669 152.019 34.2862H151.92V38.7928H150.266ZM151.886 31.3611C151.886 31.9583 151.973 32.4818 152.146 32.9315C152.32 33.3812 152.57 33.7333 152.898 33.9876C153.226 34.2383 153.628 34.3636 154.104 34.3636C154.598 34.3636 155.011 34.2328 155.342 33.971C155.674 33.7056 155.925 33.3462 156.094 32.8928C156.268 32.4394 156.354 31.9288 156.354 31.3611C156.354 30.8008 156.27 30.2976 156.1 29.8515C155.934 29.4055 155.683 29.0534 155.348 28.7954C155.016 28.5374 154.601 28.4083 154.104 28.4083C153.625 28.4083 153.219 28.5318 152.887 28.7788C152.559 29.0258 152.31 29.3705 152.141 29.8128C151.971 30.2552 151.886 30.7713 151.886 31.3611ZM163.841 27.1144V28.4415H159.202V27.1144H163.841ZM160.446 25.0796H162.099V33.114C162.099 33.4347 162.147 33.6761 162.243 33.8383C162.339 33.9968 162.463 34.1056 162.614 34.1646C162.769 34.2199 162.936 34.2475 163.117 34.2475C163.25 34.2475 163.366 34.2383 163.465 34.2199C163.565 34.2014 163.642 34.1867 163.698 34.1756L163.996 35.5414C163.9 35.5783 163.764 35.6152 163.587 35.652C163.41 35.6926 163.189 35.7147 162.923 35.7184C162.488 35.7258 162.083 35.6483 161.707 35.4861C161.331 35.3239 161.027 35.0733 160.794 34.7341C160.562 34.395 160.446 33.9692 160.446 33.4568V25.0796Z" fill="#7E7E7E"/>
</svg>

<svg xmlns="http://www.w3.org/2000/svg" width="180" height="60" fill="none" viewBox="0 0 180 60"><path stroke="#7e7e7e" stroke-width=".501" d="M57.265 12.406H23.25a8.357 8.357 0 0 0-8.358 8.357v18.474a8.357 8.357 0 0 0 8.358 8.357h34.015a8.357 8.357 0 0 0 8.357-8.357V20.763a8.357 8.357 0 0 0-8.357-8.357Z"/><path fill="#7e7e7e" d="M50.37 22.846a1.233 1.233 0 0 1 1.234-1.233h2.467a1.233 1.233 0 0 1 1.233 1.233v6.168a1.233 1.233 0 0 1-1.233 1.233h-2.467a1.233 1.233 0 0 1-1.234-1.233zm5.428 12.581a2.96 2.96 0 1 1-5.921 0 2.96 2.96 0 0 1 5.92 0m-29.85 2.96a1.233 1.233 0 0 1-1.233-1.233V22.846a1.233 1.233 0 0 1 1.233-1.233h3.108c.374 0 .729.17.963.463l3.6 4.5a1.232 1.232 0 0 0 1.926 0l3.6-4.5a1.23 1.23 0 0 1 .964-.463h3.107a1.234 1.234 0 0 1 1.234 1.233v14.308a1.233 1.233 0 0 1-1.234 1.234H40.75a1.23 1.23 0 0 1-1.234-1.234v-4.871c0-1.166-1.468-1.681-2.196-.77l-1.775 2.217a1.233 1.233 0 0 1-1.926 0l-1.774-2.218c-.728-.91-2.196-.395-2.196.771v4.871a1.233 1.233 0 0 1-1.234 1.234zM74.49 24.283h2.073l3.605 8.803h.133l3.605-8.803h2.074v11.325h-1.626v-8.195h-.105l-3.34 8.178H79.56l-3.34-8.184h-.105v8.2H74.49zm16.313 11.513q-.807 0-1.46-.299a2.46 2.46 0 0 1-1.034-.879q-.376-.575-.376-1.41 0-.72.277-1.183a2.04 2.04 0 0 1 .746-.736 3.9 3.9 0 0 1 1.05-.409 11 11 0 0 1 1.184-.21l1.239-.144q.475-.06.69-.193.217-.133.216-.432v-.038q0-.724-.409-1.123-.403-.398-1.205-.398-.835 0-1.316.37-.476.366-.658.813l-1.554-.354q.277-.773.807-1.25.537-.48 1.234-.696a4.8 4.8 0 0 1 1.465-.221q.508 0 1.078.121.575.117 1.073.432.503.315.824.901.32.58.32 1.51v5.64H93.38v-1.161h-.067a2.4 2.4 0 0 1-.48.63 2.6 2.6 0 0 1-.825.514q-.503.205-1.205.205m.36-1.327q.685 0 1.172-.271.492-.27.746-.708.26-.442.26-.946V31.45q-.088.088-.343.166-.249.071-.57.127l-.624.094q-.305.038-.509.066-.48.06-.879.205a1.5 1.5 0 0 0-.63.414q-.233.266-.233.708 0 .614.454.929.453.31 1.155.31m6.034 1.139v-8.494h1.598v1.35h.088q.233-.686.818-1.079.592-.398 1.339-.398a7 7 0 0 1 .702.039v1.581a3 3 0 0 0-.354-.06 3.4 3.4 0 0 0-.509-.04q-.586 0-1.045.25a1.85 1.85 0 0 0-.984 1.664v5.187zm7.496-2.881-.011-2.018h.288l3.384-3.595h1.979l-3.859 4.092h-.26zm-1.52 2.88V24.284h1.653v11.325zm5.363 0-3.041-4.036 1.139-1.155 3.932 5.192zm3.304 3.186V27.114h1.615v1.377h.138a4.6 4.6 0 0 1 .415-.613q.27-.35.752-.609.48-.265 1.272-.265 1.028 0 1.835.52.808.52 1.267 1.498.464.98.464 2.356 0 1.377-.459 2.36-.459.98-1.261 1.51-.801.526-1.83.526-.774 0-1.266-.26a2.4 2.4 0 0 1-.763-.608 4.6 4.6 0 0 1-.426-.62h-.1v4.507zm1.62-7.432q0 .895.26 1.57t.752 1.057q.492.376 1.206.376.74 0 1.238-.393.498-.398.752-1.078.26-.68.26-1.532 0-.84-.254-1.51a2.3 2.3 0 0 0-.752-1.056q-.498-.387-1.244-.387-.72 0-1.217.37-.492.372-.746 1.035-.255.663-.255 1.548m7.99 4.247v-8.494h1.599v1.35h.088q.233-.686.818-1.079a2.34 2.34 0 0 1 1.338-.398 7 7 0 0 1 .703.039v1.581a3 3 0 0 0-.354-.06 3.4 3.4 0 0 0-.509-.04q-.586 0-1.045.25a1.85 1.85 0 0 0-.984 1.664v5.187zm9.25.171q-1.194 0-2.085-.547a3.7 3.7 0 0 1-1.382-1.532q-.492-.984-.492-2.3 0-1.322.492-2.311a3.7 3.7 0 0 1 1.382-1.538q.891-.547 2.085-.547t2.085.547a3.7 3.7 0 0 1 1.382 1.538q.492.99.492 2.31 0 1.317-.492 2.301a3.7 3.7 0 0 1-1.382 1.532q-.891.547-2.085.547m.006-1.388q.774 0 1.282-.409.51-.41.752-1.09a4.3 4.3 0 0 0 .249-1.498q0-.813-.249-1.493a2.4 2.4 0 0 0-.752-1.1q-.508-.414-1.282-.415-.78 0-1.294.415-.51.414-.758 1.1a4.4 4.4 0 0 0-.243 1.493q0 .819.243 1.499.248.68.758 1.09.513.408 1.294.408m5.799 1.217v-8.494h1.587v1.383h.105q.265-.702.868-1.095.603-.398 1.443-.398.852 0 1.427.398.58.398.857 1.095h.088q.304-.68.968-1.084.663-.41 1.581-.41 1.156 0 1.886.725.735.724.735 2.184v5.696h-1.653v-5.54q0-.863-.47-1.25a1.7 1.7 0 0 0-1.123-.388q-.807 0-1.255.498-.447.492-.448 1.266v5.414h-1.647v-5.646q0-.69-.432-1.111-.43-.42-1.122-.42-.47 0-.868.248a1.8 1.8 0 0 0-.636.68 2.1 2.1 0 0 0-.238 1.012v5.237zm13.761 3.185V27.114h1.615v1.377h.138a4.6 4.6 0 0 1 .415-.613q.27-.35.752-.609.482-.265 1.272-.265 1.028 0 1.835.52.808.52 1.267 1.498.464.98.464 2.356 0 1.377-.459 2.36-.459.98-1.26 1.51-.802.526-1.831.526-.774 0-1.266-.26a2.4 2.4 0 0 1-.763-.608 5 5 0 0 1-.426-.62h-.099v4.507zm1.62-7.432q0 .895.26 1.57t.752 1.057q.492.376 1.206.376.741 0 1.238-.393.498-.398.752-1.078.26-.68.26-1.532 0-.84-.254-1.51a2.3 2.3 0 0 0-.752-1.056q-.498-.387-1.244-.387-.719 0-1.217.37-.492.372-.746 1.035-.255.663-.255 1.548m11.955-4.247v1.328h-4.639v-1.328zm-3.395-2.034h1.653v8.034q0 .48.144.724.144.238.371.327.232.083.503.083.2 0 .348-.028l.233-.044.298 1.365a3 3 0 0 1-.409.111q-.265.06-.664.066-.652.011-1.216-.232a2.1 2.1 0 0 1-.913-.752q-.348-.509-.348-1.277z"/></svg>
